rospo-icon-theme-classic-common/22x22/apps/com.github.basjam.valacompiler.svg

<svg height="22" width="22" xmlns="http://www.w3.org/2000/svg"><rect fill="#8e8e8e" height="20" rx="1" transform="matrix(0 -1 -1 0 0 0)" width="20" x="-21" y="-21"/><path d="m4.0101 5.499355 3.5 4 3.5-4" style="opacity:.2;fill:none;stroke:#000;stroke-width:2;stroke-linecap:round;stroke-linejoin:round"/><path d="m2 1c-.554 0-1 .446-1 1v .5c0-.554.446-1 1-1h18c .554 0 1 .446 1 1v-.5c0-.554-.446-1-1-1z" fill="#fff" opacity=".2"/><path d="m2 21.5c-.554 0-1-.446-1-1v-.5c0 .554.446 1 1 1h18c .554 0 1-.446 1-1v .5c0 .554-.446 1-1 1z" opacity=".2"/><g fill="none" stroke-linecap="round" stroke-linejoin="round" stroke-width="2"><path d="m4.0101 5 3.5 4 3.5-4" stroke="#3f3f3f"/><path d="m18.0101 9.499355-3.5-4.0101-3.5 4.0101" opacity=".2" stroke="#000"/><path d="m18.0101 9-3.5-4.0101-3.5 4.0101" stroke="#3f3f3f"/><path d="m18.0101 17.489255-3.5101-3.9899-3.4899 3.9899" opacity=".2" stroke="#000"/><path d="m18.0101 16.9899-3.5101-3.9899-3.4899 3.9899" stroke="#3f3f3f"/><path d="m4 12.499355v5h4.5" opacity=".2" stroke="#000"/><path d="m4 12v5h4.5" stroke="#3f3f3f"/></g></svg>

<svg xmlns="http://www.w3.org/2000/svg" width="22" height="22" version="1">
 <rect width="20" height="20" x="-21" y="-21" rx="1" ry="1" transform="matrix(0,-1,-1,0,0,0)" style="fill:#8e8e8e"/>
 <path d="m 4.0101,5.499355 3.5,4 3.5,-4" style="opacity:0.2;fill:none;stroke:#000000;stroke-width:2;stroke-linecap:round;stroke-linejoin:round"/>
 <path style="opacity:0.2;fill:#ffffff" d="M 2,1 C 1.446,1 1,1.446 1,2 l 0,0.5 c 0,-0.554 0.446,-1 1,-1 l 18,0 c 0.554,0 1,0.446 1,1 L 21,2 C 21,1.446 20.554,1 20,1 L 2,1 Z"/>
 <path style="opacity:0.2" d="m 2,21.5 c -0.554,0 -1,-0.446 -1,-1 L 1,20 c 0,0.554 0.446,1 1,1 l 18,0 c 0.554,0 1,-0.446 1,-1 l 0,0.5 c 0,0.554 -0.446,1 -1,1 l -18,0 z"/>
 <path style="fill:none;stroke:#3f3f3f;stroke-width:2;stroke-linecap:round;stroke-linejoin:round" d="m 4.0101,5 3.5,4 3.5,-4"/>
 <path style="opacity:0.2;fill:none;stroke:#000000;stroke-width:2;stroke-linecap:round;stroke-linejoin:round" d="m 18.0101,9.499355 -3.5,-4.0101 -3.5,4.0101"/>
 <path d="M 18.0101,9 14.5101,4.9899 11.0101,9" style="fill:none;stroke:#3f3f3f;stroke-width:2;stroke-linecap:round;stroke-linejoin:round"/>
 <path d="m 18.0101,17.489255 -3.5101,-3.9899 -3.4899,3.9899" style="opacity:0.2;fill:none;stroke:#000000;stroke-width:2;stroke-linecap:round;stroke-linejoin:round"/>
 <path style="fill:none;stroke:#3f3f3f;stroke-width:2;stroke-linecap:round;stroke-linejoin:round" d="M 18.0101,16.9899 14.5,13 11.0101,16.9899"/>
 <path d="m 4,12.499355 0,5 4.5,0" style="opacity:0.2;fill:none;stroke:#000000;stroke-width:2;stroke-linecap:round;stroke-linejoin:round"/>
 <path style="fill:none;stroke:#3f3f3f;stroke-width:2;stroke-linecap:round;stroke-linejoin:round" d="m 4,12 0,5 4.5,0"/>
</svg>
